build/img/sprite.svg

<svg xmlns="http://www.w3.org/2000/svg" xmlns:xlink="http://www.w3.org/1999/xlink"><symbol id="arrow" viewBox="0 0 43 24"><path d="M21.177 24c.47 0 .913-.25 1.218-.609l19.57-20.927c.277-.305.443-.61.443-1.025A1.43 1.43 0 0040.968 0a1.59 1.59 0 00-1.051.388L21.204 20.429 2.464.388C2.214.138 1.827 0 1.439 0 .61 0 0 .637 0 1.44c0 .415.194.747.47 1.051L19.987 23.42c.36.36.748.581 1.19.581z" fill="#fff"/></symbol><symbol id="crown" viewBox="0 0 39 20">
<path d="M38.2346 1.64976C38.2346 0.752523 37.511 0 36.5848 0C35.6876 0 34.9351 0.72358 34.9351 1.64976C34.9351 2.48911 35.5718 3.15481 36.4112 3.24164L28.1334 9.49337L36.6138 15.6004V3.29952C37.511 3.29952 38.2346 2.57594 38.2346 1.64976Z" fill="white"/>
<path d="M10.1301 9.49372L1.82342 3.27094C2.63383 3.18411 3.29952 2.51841 3.29952 1.67906C3.29952 0.78182 2.57594 0.0292969 1.64976 0.0292969C0.72358 0.0292969 0 0.752877 0 1.67906C0 2.5763 0.72358 3.32882 1.64976 3.32882V15.6297L10.1301 9.49372Z" fill="white"/>
<path d="M19.131 15.6287L27.5825 9.4638L19.3047 3.26996C20.1151 3.18313 20.7808 2.51744 20.7808 1.67808C20.7808 0.780844 20.0572 0.0283203 19.131 0.0283203C18.2049 0.0283203 17.4813 0.7519 17.4813 1.67808C17.4813 2.51744 18.118 3.18313 18.9574 3.26996L10.6796 9.4638L19.131 15.6287Z" fill="white"/>
<path d="M18.5823 16.2371L10.4204 10.3037L2.2005 16.2371H18.5823Z" fill="white"/>
<path d="M36.0632 16.2371L27.8434 10.3037L19.6814 16.2371H36.0632Z" fill="white"/>
<path d="M36.5542 17.019H1.64874V20.0002H36.5542V17.019Z" fill="white"/>
</symbol><symbol id="fb_icon"><path d="M11.548.005L8.67 0C5.436 0 3.347 2.318 3.347 5.906V8.63H.453c-.25 0-.453.219-.453.49v3.945c0 .27.203.49.453.49h2.894v9.956c0 .27.202.489.452.489h3.776c.25 0 .452-.22.452-.49v-9.956h3.384c.25 0 .453-.219.453-.489l.001-3.946a.51.51 0 00-.132-.346.436.436 0 00-.32-.143H8.026V6.32c0-1.11.245-1.673 1.582-1.673h1.939c.25 0 .452-.22.452-.49V.494c0-.27-.202-.489-.452-.489z" fill="#fff"/></symbol><symbol id="insta_icon"><path d="M17.503 0H6.497A6.504 6.504 0 000 6.497v11.007A6.504 6.504 0 006.497 24h11.007A6.504 6.504 0 0024 17.504V6.497A6.504 6.504 0 0017.503 0zM12 18.562A6.57 6.57 0 015.438 12 6.57 6.57 0 0112 5.438 6.57 6.57 0 0118.562 12 6.57 6.57 0 0112 18.562zm6.72-11.577c-1.07 0-1.94-.87-1.94-1.939 0-1.07.87-1.94 1.94-1.94 1.069 0 1.939.87 1.939 1.94 0 1.07-.87 1.94-1.94 1.94z" fill="#fff"/><path d="M12 6.844A5.161 5.161 0 006.845 12 5.161 5.161 0 0012 17.155 5.161 5.161 0 0017.155 12 5.161 5.161 0 0012 6.844zm6.719-2.33a.533.533 0 10.001 1.066.533.533 0 00-.001-1.066z" fill="#fff"/></symbol><symbol id="logo" viewBox="0 0 77 18"><path fill-rule="evenodd" clip-rule="evenodd" d="M60.649 3.023h2.9V1.79h-2.9c-.555 0-.802.309-.802.617 0 .37.247.617.802.617zm2.9 3.702V4.627h-1.172l-2.283 2.098h-5.8l-.555-1.049h-3.764l-.493 1.05h-2.53l3.27-6.603h3.393l3.436 6.564 2.487-2.245c-1.604-.185-2.282-1.049-2.282-2.036v-.123c0-1.11.74-2.16 3.023-2.16h5.8v6.602h-2.53zM50.777 4.01h2.221l-1.11-2.282-1.11 2.282zm-7.095 2.715h-2.53V.123h6.972v1.728h-4.442v4.874zM35.415 5.06c1.974 0 2.406-.864 2.406-1.604v-.123c0-.679-.432-1.543-2.406-1.543-1.975 0-2.407.864-2.407 1.543v.123c0 .679.432 1.604 2.407 1.604zm-4.998-1.79c0-1.234.555-3.27 4.813-3.27h.37c4.257 0 4.812 2.036 4.812 3.27v.247c0 1.234-.555 3.331-4.812 3.331h-.37c-4.258 0-4.813-2.097-4.813-3.331V3.27zm-3.949-1.48h-2.653v1.233h2.653c.617 0 .864-.247.864-.617s-.247-.617-.864-.617zm3.456.678c0 1.234-.74 2.221-3.147 2.221h-2.962v2.098h-2.53V.185h5.492c2.468 0 3.146.926 3.146 2.16v.123zM15.548 5.059c1.974 0 2.406-.864 2.406-1.604v-.123c0-.679-.432-1.543-2.406-1.543-1.975 0-2.406.864-2.406 1.543v.123c0 .679.431 1.604 2.406 1.604zm-5.06-1.789c0-1.234.556-3.27 4.813-3.27h.37c4.257 0 4.813 2.036 4.813 3.27v.247c0 1.234-.556 3.331-4.813 3.331h-.37c-4.257 0-4.812-2.097-4.812-3.331V3.27zm-6.91-1.357c0 1.295-.061 2.53-.37 3.085h3.27V1.913h-2.9zM0 7.897v-2.9h.864c.37-.74.432-1.974.432-4.874h7.712v4.875h1.049v2.9H7.712V6.724H2.345v1.172H0zm71.632 4.752h2.9v-1.234h-2.9c-.555 0-.802.308-.802.617 0 .37.247.617.802.617zm2.839 3.64v-2.036h-1.173l-2.282 2.097H67.93l2.53-2.283c-1.605-.185-2.284-1.048-2.284-2.036v-.123c0-1.11.74-2.16 3.024-2.16H77v6.54h-2.53zm-7.096.061h-2.53v-4.133l-4.133 4.133h-2.53v-6.6h2.53v4.133l4.134-4.133h2.53v6.601zm-12.154 0h-7.589v-6.6h2.53v4.874h3.825V9.749h2.53v4.874h1.048v2.9h-2.344V16.35zm-7.96 0h-3.27l-3.27-2.961v2.961h-2.529v-6.6h2.53v2.591l3.27-2.591h3.146l-3.825 3.023 3.949 3.578zm-9.439 0h-2.776l-.556-1.049h-3.763l-.494 1.05h-2.53l3.27-6.602h3.394l3.455 6.601zm-6.293-2.714h2.221l-1.11-2.283-1.111 2.283zm-10.365-2.16c0 1.296-.062 2.53-.37 3.085h3.27v-3.085h-2.9zm-3.579 5.985v-2.838h.864c.37-.74.432-1.975.432-4.874h7.712v4.812h1.049v2.9h-2.345v-1.172H19.93v1.172h-2.345zm-7.897-1.11V9.748h7.342v1.604h-4.813v.802h4.751v1.604h-4.75v.925h4.874v1.666H9.688zm-4.134-4.998H2.901v1.234h2.653c.617 0 .864-.247.864-.617s-.247-.617-.864-.617zm3.455.678c0 1.234-.74 2.222-3.146 2.222H2.9v2.097H.371v-6.6h5.492c2.467 0 3.146.925 3.146 2.16v.122z" fill="#fff"/></symbol><symbol id="logo_black" viewBox="0 0 77 18"><path fill-rule="evenodd" clip-rule="evenodd" d="M60.649 3.023h2.9V1.79h-2.9c-.555 0-.802.309-.802.617 0 .37.247.617.802.617zm2.9 3.702V4.627h-1.172l-2.283 2.098h-5.8l-.555-1.049h-3.764l-.493 1.05h-2.53l3.27-6.603h3.393l3.436 6.564 2.487-2.245c-1.604-.185-2.282-1.049-2.282-2.036v-.123c0-1.11.74-2.16 3.023-2.16h5.8v6.602h-2.53zM50.777 4.01h2.221l-1.11-2.282-1.11 2.282zm-7.095 2.715h-2.53V.123h6.972v1.728h-4.442v4.874zM35.415 5.06c1.974 0 2.406-.864 2.406-1.604v-.123c0-.679-.432-1.543-2.406-1.543-1.975 0-2.407.864-2.407 1.543v.123c0 .679.432 1.604 2.407 1.604zm-4.998-1.79c0-1.234.555-3.27 4.813-3.27h.37c4.257 0 4.812 2.036 4.812 3.27v.247c0 1.234-.555 3.331-4.812 3.331h-.37c-4.258 0-4.813-2.097-4.813-3.331V3.27zm-3.949-1.48h-2.653v1.233h2.653c.617 0 .864-.247.864-.617s-.247-.617-.864-.617zm3.456.678c0 1.234-.74 2.221-3.147 2.221h-2.962v2.098h-2.53V.185h5.492c2.468 0 3.146.926 3.146 2.16v.123zM15.548 5.059c1.974 0 2.406-.864 2.406-1.604v-.123c0-.679-.432-1.543-2.406-1.543-1.975 0-2.406.864-2.406 1.543v.123c0 .679.431 1.604 2.406 1.604zm-5.06-1.789c0-1.234.556-3.27 4.813-3.27h.37c4.257 0 4.813 2.036 4.813 3.27v.247c0 1.234-.556 3.331-4.813 3.331h-.37c-4.257 0-4.812-2.097-4.812-3.331V3.27zm-6.91-1.357c0 1.295-.061 2.53-.37 3.085h3.27V1.913h-2.9zM0 7.897v-2.9h.864c.37-.74.432-1.974.432-4.874h7.712v4.875h1.049v2.9H7.712V6.724H2.345v1.172H0zm71.632 4.752h2.9v-1.234h-2.9c-.555 0-.802.308-.802.617 0 .37.247.617.802.617zm2.839 3.64v-2.036h-1.173l-2.282 2.097H67.93l2.53-2.283c-1.605-.185-2.284-1.048-2.284-2.036v-.123c0-1.11.74-2.16 3.024-2.16H77v6.54h-2.53zm-7.096.061h-2.53v-4.133l-4.133 4.133h-2.53v-6.6h2.53v4.133l4.134-4.133h2.53v6.601zm-12.154 0h-7.589v-6.6h2.53v4.874h3.825V9.749h2.53v4.874h1.048v2.9h-2.344V16.35zm-7.96 0h-3.27l-3.27-2.961v2.961h-2.529v-6.6h2.53v2.591l3.27-2.591h3.146l-3.825 3.023 3.949 3.578zm-9.439 0h-2.776l-.556-1.049h-3.763l-.494 1.05h-2.53l3.27-6.602h3.394l3.455 6.601zm-6.293-2.714h2.221l-1.11-2.283-1.111 2.283zm-10.365-2.16c0 1.296-.062 2.53-.37 3.085h3.27v-3.085h-2.9zm-3.579 5.985v-2.838h.864c.37-.74.432-1.975.432-4.874h7.712v4.812h1.049v2.9h-2.345v-1.172H19.93v1.172h-2.345zm-7.897-1.11V9.748h7.342v1.604h-4.813v.802h4.751v1.604h-4.75v.925h4.874v1.666H9.688zm-4.134-4.998H2.901v1.234h2.653c.617 0 .864-.247.864-.617s-.247-.617-.864-.617zm3.455.678c0 1.234-.74 2.222-3.146 2.222H2.9v2.097H.371v-6.6h5.492c2.467 0 3.146.925 3.146 2.16v.122z" fill="#000"/></symbol><symbol id="play_icon"><path d="M13 7.5L.25 14.861V.14L13 7.5z" fill="#fff"/></symbol><symbol id="vk_icon"><path fill-rule="evenodd" clip-rule="evenodd" d="M20.655 8.266c.796.744 1.637 1.444 2.35 2.263.316.364.615.74.843 1.162.324.6.03 1.26-.532 1.297l-3.496-.002c-.902.072-1.621-.276-2.226-.866-.484-.472-.933-.974-1.398-1.462a3.27 3.27 0 00-.63-.535c-.476-.297-.89-.206-1.164.27-.277.485-.34 1.022-.368 1.562-.037.788-.286.995-1.113 1.031-1.767.08-3.445-.176-5.003-1.03-1.374-.752-2.44-1.814-3.366-3.016C2.746 6.598 1.364 4.026.122 1.38-.159.786.045.466.732.455A97.704 97.704 0 014.156.452c.464.007.77.261.95.68.617 1.453 1.372 2.835 2.32 4.115.252.341.51.682.876.922.405.266.714.178.905-.254.12-.274.174-.57.201-.863.09-1.01.102-2.019-.056-3.025C9.255 1.399 8.885.992 8.23.873c-.334-.06-.284-.18-.123-.362C8.388.196 8.653 0 9.18 0h3.951c.622.118.76.385.845.984l.004 4.201c-.007.232.12.92.557 1.074.35.11.58-.158.79-.37.946-.961 1.62-2.097 2.224-3.273.268-.517.498-1.054.721-1.591.165-.398.425-.594.893-.586l3.803.004c.113 0 .227.001.336.02.641.104.817.368.619.967-.312.94-.919 1.722-1.512 2.51-.634.84-1.313 1.65-1.941 2.495-.578.772-.532 1.16.185 1.831z" fill="#fff"/></symbol></svg>

<svg xmlns="http://www.w3.org/2000/svg" xmlns:xlink="http://www.w3.org/1999/xlink"><symbol id="arrow" viewBox="0 0 43 24"><path d="M21.177 24c.47 0 .913-.25 1.218-.609l19.57-20.927c.277-.305.443-.61.443-1.025A1.43 1.43 0 0040.968 0a1.59 1.59 0 00-1.051.388L21.204 20.429 2.464.388C2.214.138 1.827 0 1.439 0 .61 0 0 .637 0 1.44c0 .415.194.747.47 1.051L19.987 23.42c.36.36.748.581 1.19.581z" fill="#fff"/></symbol><symbol id="crown" viewBox="0 0 39 20"><path d="M38.235 1.65a1.649 1.649 0 10-3.3 0c0 .84.637 1.505 1.476 1.592l-8.278 6.251 8.48 6.107V3.3c.898 0 1.622-.724 1.622-1.65zM10.13 9.494L1.823 3.27c.81-.087 1.477-.753 1.477-1.592C3.3.782 2.576.03 1.65.03A1.63 1.63 0 000 1.68c0 .897.724 1.65 1.65 1.65v12.3l8.48-6.135zm9.001 6.135l8.451-6.165-8.277-6.194c.81-.087 1.476-.753 1.476-1.592a1.65 1.65 0 00-1.65-1.65 1.63 1.63 0 00-1.65 1.65c0 .84.637 1.505 1.476 1.592L10.68 9.464l8.451 6.165zm-.549.608l-8.162-5.933-8.22 5.933h16.382zm17.481 0l-8.22-5.933-8.162 5.933h16.382zm.491.782H1.65V20h34.905v-2.98z" fill="#fff"/></symbol><symbol id="fb_icon"><path d="M11.548.005L8.67 0C5.436 0 3.347 2.318 3.347 5.906V8.63H.453c-.25 0-.453.219-.453.49v3.945c0 .27.203.49.453.49h2.894v9.956c0 .27.202.489.452.489h3.776c.25 0 .452-.22.452-.49v-9.956h3.384c.25 0 .453-.219.453-.489l.001-3.946a.51.51 0 00-.132-.346.436.436 0 00-.32-.143H8.026V6.32c0-1.11.245-1.673 1.582-1.673h1.939c.25 0 .452-.22.452-.49V.494c0-.27-.202-.489-.452-.489z" fill="#fff"/></symbol><symbol id="insta_icon"><path d="M17.503 0H6.497A6.504 6.504 0 000 6.497v11.007A6.504 6.504 0 006.497 24h11.007A6.504 6.504 0 0024 17.504V6.497A6.504 6.504 0 0017.503 0zM12 18.562A6.57 6.57 0 015.438 12 6.57 6.57 0 0112 5.438 6.57 6.57 0 0118.562 12 6.57 6.57 0 0112 18.562zm6.72-11.577c-1.07 0-1.94-.87-1.94-1.939 0-1.07.87-1.94 1.94-1.94 1.069 0 1.939.87 1.939 1.94 0 1.07-.87 1.94-1.94 1.94z" fill="#fff"/><path d="M12 6.844A5.161 5.161 0 006.845 12 5.161 5.161 0 0012 17.155 5.161 5.161 0 0017.155 12 5.161 5.161 0 0012 6.844zm6.719-2.33a.533.533 0 10.001 1.066.533.533 0 00-.001-1.066z" fill="#fff"/></symbol><symbol id="logo" viewBox="0 0 77 18"><path fill-rule="evenodd" clip-rule="evenodd" d="M60.649 3.023h2.9V1.79h-2.9c-.555 0-.802.309-.802.617 0 .37.247.617.802.617zm2.9 3.702V4.627h-1.172l-2.283 2.098h-5.8l-.555-1.049h-3.764l-.493 1.05h-2.53l3.27-6.603h3.393l3.436 6.564 2.487-2.245c-1.604-.185-2.282-1.049-2.282-2.036v-.123c0-1.11.74-2.16 3.023-2.16h5.8v6.602h-2.53zM50.777 4.01h2.221l-1.11-2.282-1.11 2.282zm-7.095 2.715h-2.53V.123h6.972v1.728h-4.442v4.874zM35.415 5.06c1.974 0 2.406-.864 2.406-1.604v-.123c0-.679-.432-1.543-2.406-1.543-1.975 0-2.407.864-2.407 1.543v.123c0 .679.432 1.604 2.407 1.604zm-4.998-1.79c0-1.234.555-3.27 4.813-3.27h.37c4.257 0 4.812 2.036 4.812 3.27v.247c0 1.234-.555 3.331-4.812 3.331h-.37c-4.258 0-4.813-2.097-4.813-3.331V3.27zm-3.949-1.48h-2.653v1.233h2.653c.617 0 .864-.247.864-.617s-.247-.617-.864-.617zm3.456.678c0 1.234-.74 2.221-3.147 2.221h-2.962v2.098h-2.53V.185h5.492c2.468 0 3.146.926 3.146 2.16v.123zM15.548 5.059c1.974 0 2.406-.864 2.406-1.604v-.123c0-.679-.432-1.543-2.406-1.543-1.975 0-2.406.864-2.406 1.543v.123c0 .679.431 1.604 2.406 1.604zm-5.06-1.789c0-1.234.556-3.27 4.813-3.27h.37c4.257 0 4.813 2.036 4.813 3.27v.247c0 1.234-.556 3.331-4.813 3.331h-.37c-4.257 0-4.812-2.097-4.812-3.331V3.27zm-6.91-1.357c0 1.295-.061 2.53-.37 3.085h3.27V1.913h-2.9zM0 7.897v-2.9h.864c.37-.74.432-1.974.432-4.874h7.712v4.875h1.049v2.9H7.712V6.724H2.345v1.172H0zm71.632 4.752h2.9v-1.234h-2.9c-.555 0-.802.308-.802.617 0 .37.247.617.802.617zm2.839 3.64v-2.036h-1.173l-2.282 2.097H67.93l2.53-2.283c-1.605-.185-2.284-1.048-2.284-2.036v-.123c0-1.11.74-2.16 3.024-2.16H77v6.54h-2.53zm-7.096.061h-2.53v-4.133l-4.133 4.133h-2.53v-6.6h2.53v4.133l4.134-4.133h2.53v6.601zm-12.154 0h-7.589v-6.6h2.53v4.874h3.825V9.749h2.53v4.874h1.048v2.9h-2.344V16.35zm-7.96 0h-3.27l-3.27-2.961v2.961h-2.529v-6.6h2.53v2.591l3.27-2.591h3.146l-3.825 3.023 3.949 3.578zm-9.439 0h-2.776l-.556-1.049h-3.763l-.494 1.05h-2.53l3.27-6.602h3.394l3.455 6.601zm-6.293-2.714h2.221l-1.11-2.283-1.111 2.283zm-10.365-2.16c0 1.296-.062 2.53-.37 3.085h3.27v-3.085h-2.9zm-3.579 5.985v-2.838h.864c.37-.74.432-1.975.432-4.874h7.712v4.812h1.049v2.9h-2.345v-1.172H19.93v1.172h-2.345zm-7.897-1.11V9.748h7.342v1.604h-4.813v.802h4.751v1.604h-4.75v.925h4.874v1.666H9.688zm-4.134-4.998H2.901v1.234h2.653c.617 0 .864-.247.864-.617s-.247-.617-.864-.617zm3.455.678c0 1.234-.74 2.222-3.146 2.222H2.9v2.097H.371v-6.6h5.492c2.467 0 3.146.925 3.146 2.16v.122z" fill="#fff"/></symbol><symbol id="logo_black" viewBox="0 0 77 18"><path fill-rule="evenodd" clip-rule="evenodd" d="M60.649 3.023h2.9V1.79h-2.9c-.555 0-.802.309-.802.617 0 .37.247.617.802.617zm2.9 3.702V4.627h-1.172l-2.283 2.098h-5.8l-.555-1.049h-3.764l-.493 1.05h-2.53l3.27-6.603h3.393l3.436 6.564 2.487-2.245c-1.604-.185-2.282-1.049-2.282-2.036v-.123c0-1.11.74-2.16 3.023-2.16h5.8v6.602h-2.53zM50.777 4.01h2.221l-1.11-2.282-1.11 2.282zm-7.095 2.715h-2.53V.123h6.972v1.728h-4.442v4.874zM35.415 5.06c1.974 0 2.406-.864 2.406-1.604v-.123c0-.679-.432-1.543-2.406-1.543-1.975 0-2.407.864-2.407 1.543v.123c0 .679.432 1.604 2.407 1.604zm-4.998-1.79c0-1.234.555-3.27 4.813-3.27h.37c4.257 0 4.812 2.036 4.812 3.27v.247c0 1.234-.555 3.331-4.812 3.331h-.37c-4.258 0-4.813-2.097-4.813-3.331V3.27zm-3.949-1.48h-2.653v1.233h2.653c.617 0 .864-.247.864-.617s-.247-.617-.864-.617zm3.456.678c0 1.234-.74 2.221-3.147 2.221h-2.962v2.098h-2.53V.185h5.492c2.468 0 3.146.926 3.146 2.16v.123zM15.548 5.059c1.974 0 2.406-.864 2.406-1.604v-.123c0-.679-.432-1.543-2.406-1.543-1.975 0-2.406.864-2.406 1.543v.123c0 .679.431 1.604 2.406 1.604zm-5.06-1.789c0-1.234.556-3.27 4.813-3.27h.37c4.257 0 4.813 2.036 4.813 3.27v.247c0 1.234-.556 3.331-4.813 3.331h-.37c-4.257 0-4.812-2.097-4.812-3.331V3.27zm-6.91-1.357c0 1.295-.061 2.53-.37 3.085h3.27V1.913h-2.9zM0 7.897v-2.9h.864c.37-.74.432-1.974.432-4.874h7.712v4.875h1.049v2.9H7.712V6.724H2.345v1.172H0zm71.632 4.752h2.9v-1.234h-2.9c-.555 0-.802.308-.802.617 0 .37.247.617.802.617zm2.839 3.64v-2.036h-1.173l-2.282 2.097H67.93l2.53-2.283c-1.605-.185-2.284-1.048-2.284-2.036v-.123c0-1.11.74-2.16 3.024-2.16H77v6.54h-2.53zm-7.096.061h-2.53v-4.133l-4.133 4.133h-2.53v-6.6h2.53v4.133l4.134-4.133h2.53v6.601zm-12.154 0h-7.589v-6.6h2.53v4.874h3.825V9.749h2.53v4.874h1.048v2.9h-2.344V16.35zm-7.96 0h-3.27l-3.27-2.961v2.961h-2.529v-6.6h2.53v2.591l3.27-2.591h3.146l-3.825 3.023 3.949 3.578zm-9.439 0h-2.776l-.556-1.049h-3.763l-.494 1.05h-2.53l3.27-6.602h3.394l3.455 6.601zm-6.293-2.714h2.221l-1.11-2.283-1.111 2.283zm-10.365-2.16c0 1.296-.062 2.53-.37 3.085h3.27v-3.085h-2.9zm-3.579 5.985v-2.838h.864c.37-.74.432-1.975.432-4.874h7.712v4.812h1.049v2.9h-2.345v-1.172H19.93v1.172h-2.345zm-7.897-1.11V9.748h7.342v1.604h-4.813v.802h4.751v1.604h-4.75v.925h4.874v1.666H9.688zm-4.134-4.998H2.901v1.234h2.653c.617 0 .864-.247.864-.617s-.247-.617-.864-.617zm3.455.678c0 1.234-.74 2.222-3.146 2.222H2.9v2.097H.371v-6.6h5.492c2.467 0 3.146.925 3.146 2.16v.122z" fill="#000"/></symbol><symbol id="play_icon"><path d="M13 7.5L.25 14.861V.14L13 7.5z" fill="#fff"/></symbol><symbol id="vk_icon"><path fill-rule="evenodd" clip-rule="evenodd" d="M20.655 8.266c.796.744 1.637 1.444 2.35 2.263.316.364.615.74.843 1.162.324.6.03 1.26-.532 1.297l-3.496-.002c-.902.072-1.621-.276-2.226-.866-.484-.472-.933-.974-1.398-1.462a3.27 3.27 0 00-.63-.535c-.476-.297-.89-.206-1.164.27-.277.485-.34 1.022-.368 1.562-.037.788-.286.995-1.113 1.031-1.767.08-3.445-.176-5.003-1.03-1.374-.752-2.44-1.814-3.366-3.016C2.746 6.598 1.364 4.026.122 1.38-.159.786.045.466.732.455A97.704 97.704 0 014.156.452c.464.007.77.261.95.68.617 1.453 1.372 2.835 2.32 4.115.252.341.51.682.876.922.405.266.714.178.905-.254.12-.274.174-.57.201-.863.09-1.01.102-2.019-.056-3.025C9.255 1.399 8.885.992 8.23.873c-.334-.06-.284-.18-.123-.362C8.388.196 8.653 0 9.18 0h3.951c.622.118.76.385.845.984l.004 4.201c-.007.232.12.92.557 1.074.35.11.58-.158.79-.37.946-.961 1.62-2.097 2.224-3.273.268-.517.498-1.054.721-1.591.165-.398.425-.594.893-.586l3.803.004c.113 0 .227.001.336.02.641.104.817.368.619.967-.312.94-.919 1.722-1.512 2.51-.634.84-1.313 1.65-1.941 2.495-.578.772-.532 1.16.185 1.831z" fill="#fff"/></symbol></svg>
